icons/calendar-date-25.svg

<svg
  xmlns="http://www.w3.org/2000/svg"
  viewBox="0 0 500 500"
  width="500"
  height="500"
  fill="#ffffff"
>
  <path d="M382.5 47.2h-16.7V5h-24.4v42.2H158.6V5h-24.4v42.2h-16.7a91.5 91.5 0 0 0-91.4 91.4v265a91.5 91.5 0 0 0 91.4 91.4h265a91.5 91.5 0 0 0 91.4-91.4v-265a91.5 91.5 0 0 0-91.4-91.4zm67 356.4a67.1 67.1 0 0 1-67 67h-265a67.1 67.1 0 0 1-67-67v-265c0-2.2.1-4.3.3-6.4h398.4c.2 2.1.3 4.2.3 6.4z" />
  <path
    data-name="2"
    d="M142.2 373.5l16.4-15.1c43.4-41.8 70.9-72.5 70.9-110.5 0-29.4-18.7-59.7-63-59.7a90.5 90.5 0 0 0-58.2 20.8l8.9 19.7c9.5-8 25-17.5 43.7-17.5 30.6 0 40.8 19.3 40.8 40.2-.4 31-24.1 57.6-76.6 107.6l-21.8 21.2v17.1h131.3v-23.1h-92.4z"
  />
  <path
    data-name="5"
    d="M363 277.7c-12.7-7.6-28.5-11.1-44.3-11.1a102.2 102.2 0 0 0-16.8 1.3l7.9-52.9h78.5v-23.4h-98.4l-13.3 98.7c7.6-.9 16.8-2.2 28.5-2.2 41.1 0 58.8 19 59.2 45.6s-22.5 44.6-48.8 44.6c-18.6 0-35.4-6.3-43.9-11.4l-7 21.2c9.8 6.3 28.8 12.6 51.3 12.6 44.6 0 76.5-30 76.5-70.2 0-25.9-13.3-43.6-29.4-52.8z"
  />
</svg>

<svg xmlns="http://www.w3.org/2000/svg" viewBox="0 0 500 500">
  <g id="calendar-date-25">
    <path id="outline" d="M382.5,47.2H365.8V5H341.4V47.2H158.6V5H134.2V47.2H117.5a91.5,91.5,0,0,0-91.4,91.4v265A91.5,91.5,0,0,0,117.5,495h265a91.5,91.5,0,0,0,91.4-91.4v-265A91.5,91.5,0,0,0,382.5,47.2Zm67,356.4a67.1,67.1,0,0,1-67,67h-265a67.1,67.1,0,0,1-67-67v-265c0-2.2.1-4.3.3-6.4H449.2c.2,2.1.3,4.2.3,6.4Z"/>
    <path id="_2" data-name="2" d="M142.2,373.5l16.4-15.1c43.4-41.8,70.9-72.5,70.9-110.5,0-29.4-18.7-59.7-63-59.7A90.5,90.5,0,0,0,108.3,209l8.9,19.7c9.5-8,25-17.5,43.7-17.5,30.6,0,40.8,19.3,40.8,40.2-.4,31-24.1,57.6-76.6,107.6l-21.8,21.2v17.1H234.6V374.2H142.2Z"/>
    <path id="_5" data-name="5" d="M363,277.7c-12.7-7.6-28.5-11.1-44.3-11.1a102.2,102.2,0,0,0-16.8,1.3l7.9-52.9h78.5V191.6H289.9l-13.3,98.7c7.6-.9,16.8-2.2,28.5-2.2,41.1,0,58.8,19,59.2,45.6s-22.5,44.6-48.8,44.6c-18.6,0-35.4-6.3-43.9-11.4l-7,21.2c9.8,6.3,28.8,12.6,51.3,12.6,44.6,0,76.5-30,76.5-70.2C392.4,304.6,379.1,286.9,363,277.7Z"/>
  </g>
</svg>
